mimes/32/application-epub+zip.svg

<?xml version="1.0" encoding="UTF-8" standalone="no"?>
<svg
   xmlns:dc="http://purl.org/dc/elements/1.1/"
   xmlns:cc="http://creativecommons.org/ns#"
   xmlns:rdf="http://www.w3.org/1999/02/22-rdf-syntax-ns#"
   xmlns:svg="http://www.w3.org/2000/svg"
   xmlns="http://www.w3.org/2000/svg"
   xmlns:xlink="http://www.w3.org/1999/xlink"
   xmlns:sodipodi="http://sodipodi.sourceforge.net/DTD/sodipodi-0.dtd"
   xmlns:inkscape="http://www.inkscape.org/namespaces/inkscape"
   version="1.1"
   width="32"
   height="32"
   id="svg3194"
   inkscape:version="0.91 r13725"
   sodipodi:docname="application-epub+zip.svg">
  <sodipodi:namedview
     pagecolor="#ffffff"
     bordercolor="#666666"
     borderopacity="1"
     objecttolerance="10"
     gridtolerance="10"
     guidetolerance="10"
     inkscape:pageopacity="0"
     inkscape:pageshadow="2"
     inkscape:window-width="640"
     inkscape:window-height="480"
     id="namedview139" />
  <defs
     id="defs3196">
    <linearGradient
       x1="23.99999"
       y1="4.999989"
       x2="23.99999"
       y2="43"
       id="linearGradient3075"
       xlink:href="#linearGradient3731"
       gradientUnits="userSpaceOnUse"
       gradientTransform="matrix(0.56756757,0,0,0.67567567,2.3783793,-0.21620881)" />
    <linearGradient
       id="linearGradient3731">
      <stop
         id="stop3733"
         style="stop-color:#ffffff;stop-opacity:1"
         offset="0" />
      <stop
         id="stop3735"
         style="stop-color:#ffffff;stop-opacity:0.23529412"
         offset="0.02706478" />
      <stop
         id="stop3737"
         style="stop-color:#ffffff;stop-opacity:0.15686275"
         offset="0.97377032" />
      <stop
         id="stop3739"
         style="stop-color:#ffffff;stop-opacity:0.39215687"
         offset="1" />
    </linearGradient>
    <radialGradient
       cx="7.4956832"
       cy="8.4497671"
       r="19.99999"
       fx="7.4956832"
       fy="8.4497671"
       id="radialGradient3078"
       xlink:href="#linearGradient2867-449-88-871-390-598-476-591-434-148-57-177-641-289-620-227-114-444-680-744-8"
       gradientUnits="userSpaceOnUse"
       gradientTransform="matrix(1.165708e-8,1.6179162,-1.483354,-2.9808191e-8,28.734063,-9.2240923)" />
    <linearGradient
       id="linearGradient2867-449-88-871-390-598-476-591-434-148-57-177-641-289-620-227-114-444-680-744-8">
      <stop
         id="stop5430-8"
         style="stop-color:#5f5f5f;stop-opacity:1"
         offset="0" />
      <stop
         id="stop5432-3"
         style="stop-color:#4f4f4f;stop-opacity:1"
         offset="0.26238" />
      <stop
         id="stop5434-1"
         style="stop-color:#3b3b3b;stop-opacity:1"
         offset="0.704952" />
      <stop
         id="stop5436-8"
         style="stop-color:#2b2b2b;stop-opacity:1"
         offset="1" />
    </linearGradient>
    <linearGradient
       x1="24"
       y1="44"
       x2="24"
       y2="3.8990016"
       id="linearGradient3080"
       xlink:href="#linearGradient3707-319-631-407-324-616-674-812-821-107-178-392-400-6"
       gradientUnits="userSpaceOnUse"
       gradientTransform="matrix(0.60000001,0,0,0.69230771,1.8000008,-0.61538474)" />
    <linearGradient
       id="linearGradient3707-319-631-407-324-616-674-812-821-107-178-392-400-6">
      <stop
         id="stop5440-4"
         style="stop-color:#272727;stop-opacity:1"
         offset="0" />
      <stop
         id="stop5442-3"
         style="stop-color:#454545;stop-opacity:1"
         offset="1" />
    </linearGradient>
    <radialGradient
       cx="24.501682"
       cy="6.6475959"
       r="17.49832"
       fx="24.501682"
       fy="6.6475959"
       id="radialGradient3083"
       xlink:href="#linearGradient8967-1"
       gradientUnits="userSpaceOnUse"
       gradientTransform="matrix(0,1.8069473,-2.0594306,0,30.190262,-41.983847)" />
    <linearGradient
       x1="32.901409"
       y1="4.6481781"
       x2="32.901409"
       y2="61.481758"
       id="linearGradient3085"
       xlink:href="#linearGradient3319-1"
       gradientUnits="userSpaceOnUse"
       gradientTransform="matrix(0.45330736,0,0,0.48530928,1.9941631,0.11705426)" />
    <linearGradient
       x1="10.654308"
       y1="1"
       x2="10.654308"
       y2="3"
       id="linearGradient3088"
       xlink:href="#linearGradient2346"
       gradientUnits="userSpaceOnUse"
       gradientTransform="matrix(0.60000001,0,0,0.75000464,0.6000147,0.12497942)" />
    <linearGradient
       id="linearGradient2346">
      <stop
         id="stop2348"
         style="stop-color:#eeeeee;stop-opacity:1"
         offset="0" />
      <stop
         id="stop2350"
         style="stop-color:#d9d9da;stop-opacity:1"
         offset="1" />
    </linearGradient>
    <linearGradient
       x1="24"
       y1="44"
       x2="24"
       y2="3.8990016"
       id="linearGradient3090"
       xlink:href="#linearGradient3707-319-631-407-324-616-674-812-821-107-178-392-400-6-2"
       gradientUnits="userSpaceOnUse"
       gradientTransform="matrix(0.60000001,0,0,0.07692307,1.8001714,0.15384638)" />
    <linearGradient
       id="linearGradient3707-319-631-407-324-616-674-812-821-107-178-392-400-6-2">
      <stop
         id="stop5440-4-8"
         style="stop-color:#272727;stop-opacity:1"
         offset="0" />
      <stop
         id="stop5442-3-8"
         style="stop-color:#454545;stop-opacity:1"
         offset="1" />
    </linearGradient>
    <linearGradient
       x1="24.62738"
       y1="3.1234391"
       x2="24.640038"
       y2="4.882647"
       id="linearGradient3190"
       xlink:href="#linearGradient2346"
       gradientUnits="userSpaceOnUse"
       gradientTransform="matrix(0.69041563,0,0,1.0164576,0.2501926,-2.4916513)" />
    <linearGradient
       x1="5.2122574"
       y1="0.065301567"
       x2="54.887218"
       y2="0.065301567"
       id="linearGradient3192"
       xlink:href="#linearGradient3911"
       gradientUnits="userSpaceOnUse"
       gradientTransform="matrix(0.49253714,0,0,0.4937733,0.8902917,0.14413039)" />
    <radialGradient
       cx="4.9929786"
       cy="43.5"
       r="2.5"
       fx="4.9929786"
       fy="43.5"
       id="radialGradient2976"
       xlink:href="#linearGradient3688-166-749"
       gradientUnits="userSpaceOnUse"
       gradientTransform="matrix(2.003784,0,0,1.4,27.98813,-17.4)" />
    <linearGradient
       id="linearGradient3688-166-749">
      <stop
         id="stop2883"
         style="stop-color:#181818;stop-opacity:1"
         offset="0" />
      <stop
         id="stop2885"
         style="stop-color:#181818;stop-opacity:0"
         offset="1" />
    </linearGradient>
    <radialGradient
       cx="4.9929786"
       cy="43.5"
       r="2.5"
       fx="4.9929786"
       fy="43.5"
       id="radialGradient2978"
       xlink:href="#linearGradient3688-464-309"
       gradientUnits="userSpaceOnUse"
       gradientTransform="matrix(2.003784,0,0,1.4,-20.01187,-104.4)" />
    <linearGradient
       id="linearGradient3688-464-309">
      <stop
         id="stop2889"
         style="stop-color:#181818;stop-opacity:1"
         offset="0" />
      <stop
         id="stop2891"
         style="stop-color:#181818;stop-opacity:0"
         offset="1" />
    </linearGradient>
    <linearGradient
       x1="25.058096"
       y1="47.027729"
       x2="25.058096"
       y2="39.999443"
       id="linearGradient2980"
       xlink:href="#linearGradient3702-501-757"
       gradientUnits="userSpaceOnUse" />
    <linearGradient
       id="linearGradient3702-501-757">
      <stop
         id="stop2895"
         style="stop-color:#181818;stop-opacity:0"
         offset="0" />
      <stop
         id="stop2897"
         style="stop-color:#181818;stop-opacity:1"
         offset="0.5" />
      <stop
         id="stop2899"
         style="stop-color:#181818;stop-opacity:0"
         offset="1" />
    </linearGradient>
    <linearGradient
       id="linearGradient8967-1">
      <stop
         id="stop8969-2"
         style="stop-color:#c4ea71;stop-opacity:1"
         offset="0" />
      <stop
         id="stop8971-2"
         style="stop-color:#7c9d35;stop-opacity:1"
         offset="1" />
    </linearGradient>
    <linearGradient
       id="linearGradient3319-1">
      <stop
         id="stop3321-3"
         style="stop-color:#96bf3e;stop-opacity:1"
         offset="0" />
      <stop
         id="stop3323-6"
         style="stop-color:#4d6b0d;stop-opacity:1"
         offset="1" />
    </linearGradient>
    <linearGradient
       id="linearGradient3911">
      <stop
         id="stop3913"
         style="stop-color:#96bf3e;stop-opacity:1"
         offset="0" />
      <stop
         id="stop3915"
         style="stop-color:#4d6b0d;stop-opacity:1"
         offset="1" />
    </linearGradient>
  </defs>
  <metadata
     id="metadata3199">
    <rdf:RDF>
      <cc:Work
         rdf:about="">
        <dc:format>image/svg+xml</dc:format>
        <dc:type
           rdf:resource="http://purl.org/dc/dcmitype/StillImage" />
        <dc:title />
      </cc:Work>
    </rdf:RDF>
  </metadata>
  <g
     id="layer1">
    <g
       transform="matrix(0.64999974,0,0,0.3333336,0.39999974,15.33333)"
       id="g2036"
       style="display:inline">
      <g
         transform="matrix(1.052632,0,0,1.285713,-1.263158,-13.42854)"
         id="g3712"
         style="opacity:0.4">
        <rect
           width="5"
           height="7"
           x="38"
           y="40"
           id="rect2801"
           style="fill:url(#radialGradient2976);fill-opacity:1;stroke:none" />
        <rect
           width="5"
           height="7"
           x="-10"
           y="-47"
           transform="scale(-1,-1)"
           id="rect3696"
           style="fill:url(#radialGradient2978);fill-opacity:1;stroke:none" />
        <rect
           width="28"
           height="7.0000005"
           x="10"
           y="40"
           id="rect3700"
           style="fill:url(#linearGradient2980);fill-opacity:1;stroke:none" />
      </g>
    </g>
    <path
       d="M 27.491301,2.3043778 C 27.288172,1.6493136 27.414776,1.1334476 27.302585,0.5086989 l -20.7938863,0 0.1227276,1.9826025"
       id="path2723"
       style="fill:url(#linearGradient3190);fill-opacity:1;stroke:url(#linearGradient3192);stroke-width:1.01739752;stroke-linecap:butt;stroke-linejoin:round;stroke-miterlimit:0;stroke-opacity:1;stroke-dasharray:none;stroke-dashoffset:0;display:inline" />
    <path
       d="m 7.5001709,3.5 -2.4000002,0 C 4.7576618,3.5 4.5001708,3.46825 4.5001708,3.426829 l 0,-2.0973288 c 0,-0.66594375 0.3354193,-0.82950023 0.7745366,-0.82950023 l 2.2254635,0"
       id="rect5505-21-3-9"
       style="color:#000000;fill:url(#linearGradient3088);fill-opacity:1;fill-rule:nonzero;stroke:url(#linearGradient3090);stroke-width:0.99999994;stroke-linecap:round;stroke-linejoin:round;stroke-miterlimit:4;stroke-opacity:1;stroke-dasharray:none;stroke-dashoffset:0;marker:none;visibility:visible;display:inline;overflow:visible;enable-background:accumulate" />
    <rect
       width="21.980959"
       height="26.980959"
       rx="0.5"
       ry="0.5"
       x="5.5095205"
       y="2.5095644"
       id="rect2719"
       style="fill:url(#radialGradient3083);fill-opacity:1;stroke:url(#linearGradient3085);stroke-width:1.0190413;stroke-linecap:round;stroke-linejoin:round;stroke-miterlimit:0;stroke-opacity:1;stroke-dasharray:none;stroke-dashoffset:0;display:inline" />
    <path
       d="m 7.5,2.5000001 c 0,0 0,18.7742959 0,26.9999999 l -2.4,0 c -0.3425089,0 -0.6,-0.285772 -0.6,-0.658537 l 0,-26.3414629 z"
       id="rect5505-21-3"
       style="color:#000000;fill:url(#radialGradient3078);fill-opacity:1;fill-rule:nonzero;stroke:url(#linearGradient3080);stroke-width:1;stroke-linecap:round;stroke-linejoin:round;stroke-miterlimit:4;stroke-opacity:1;stroke-dasharray:none;stroke-dashoffset:0;marker:none;visibility:visible;display:inline;overflow:visible;enable-background:accumulate" />
    <rect
       width="21"
       height="25"
       x="5.5"
       y="3.5000002"
       id="rect6741-0"
       style="opacity:0.5;fill:none;stroke:url(#linearGradient3075);stroke-width:0.99999988;stroke-linecap:round;stroke-linejoin:round;stroke-miterlimit:4;stroke-opacity:1;stroke-dasharray:none;stroke-dashoffset:0" />
    <path
       d="m 16.999886,20.304641 -3.77084,-3.713998 3.77084,-3.71347 1.25705,1.237774 -2.514099,2.475696 1.256974,1.237999 3.770839,-3.713469 -3.284841,-3.235063 c -0.268233,-0.264393 -0.703306,-0.264393 -0.971768,0 l -5.312867,5.232353 c -0.268232,0.264166 -0.268232,0.692646 0,0.95704 l 5.312944,5.232203 c 0.268462,0.264392 0.703534,0.264392 0.971766,0 l 5.312942,-5.232203 c 0.268231,-0.264394 0.268231,-0.692874 0,-0.95704 l -0.77128,-0.759367 -5.02766,4.951545 z"
       id="path3859"
       style="opacity:0.2;fill:#000000;fill-opacity:1" />
    <path
       d="m 16.999886,19.122826 -3.77084,-3.713998 3.77084,-3.713469 1.25705,1.237773 -2.514099,2.475696 1.256974,1.238 3.770839,-3.71347 -3.284841,-3.2350632 c -0.268233,-0.2643933 -0.703306,-0.2643933 -0.971768,0 l -5.312867,5.2323532 c -0.268232,0.264167 -0.268232,0.692647 0,0.95704 l 5.312944,5.232203 c 0.268462,0.264392 0.703534,0.264392 0.971766,0 l 5.312942,-5.232203 c 0.268231,-0.264393 0.268231,-0.692873 0,-0.95704 l -0.77128,-0.759366 -5.02766,4.951544 z"
       id="path10"
       style="fill:#ffffff;fill-opacity:1" />
  </g>
</svg>

<svg xmlns="http://www.w3.org/2000/svg" xmlns:xlink="http://www.w3.org/1999/xlink" viewBox="0 0 32 32"><defs><linearGradient x1="24" y1="5" x2="24" y2="43" id="w" xlink:href="#a" gradientUnits="userSpaceOnUse" gradientTransform="matrix(.56757 0 0 .67568 2.378 -.216)"/><linearGradient id="a"><stop offset="0" stop-color="#fff"/><stop offset=".027" stop-color="#fff" stop-opacity=".235"/><stop offset=".974" stop-color="#fff" stop-opacity=".157"/><stop offset="1" stop-color="#fff" stop-opacity=".392"/></linearGradient><radialGradient cx="7.496" cy="8.45" r="20" fx="7.496" fy="8.45" id="u" xlink:href="#b" gradientUnits="userSpaceOnUse" gradientTransform="matrix(0 1.61792 -1.48335 0 28.734 -9.224)"/><linearGradient id="b"><stop offset="0" stop-color="#5f5f5f"/><stop offset=".262" stop-color="#4f4f4f"/><stop offset=".705" stop-color="#3b3b3b"/><stop offset="1" stop-color="#2b2b2b"/></linearGradient><linearGradient x1="24" y1="44" x2="24" y2="3.899" id="v" xlink:href="#c" gradientUnits="userSpaceOnUse" gradientTransform="matrix(.6 0 0 .6923 1.8 -.615)"/><linearGradient id="c"><stop offset="0" stop-color="#272727"/><stop offset="1" stop-color="#454545"/></linearGradient><radialGradient cx="24.502" cy="6.648" r="17.498" fx="24.502" fy="6.648" id="s" xlink:href="#d" gradientUnits="userSpaceOnUse" gradientTransform="matrix(0 1.80695 -2.05943 0 30.19 -41.984)"/><linearGradient x1="32.901" y1="4.648" x2="32.901" y2="61.482" id="t" xlink:href="#e" gradientUnits="userSpaceOnUse" gradientTransform="matrix(.4533 0 0 .4853 1.994 .117)"/><linearGradient x1="10.654" y1="1" x2="10.654" y2="3" id="q" xlink:href="#f" gradientUnits="userSpaceOnUse" gradientTransform="matrix(.6 0 0 .75 .6 .125)"/><linearGradient id="f"><stop offset="0" stop-color="#eee"/><stop offset="1" stop-color="#d9d9da"/></linearGradient><linearGradient x1="24" y1="44" x2="24" y2="3.899" id="r" xlink:href="#g" gradientUnits="userSpaceOnUse" gradientTransform="matrix(.6 0 0 .07692 1.8 .154)"/><linearGradient id="g"><stop offset="0" stop-color="#272727"/><stop offset="1" stop-color="#454545"/></linearGradient><linearGradient x1="24.627" y1="3.123" x2="24.64" y2="4.883" id="o" xlink:href="#f" gradientUnits="userSpaceOnUse" gradientTransform="matrix(.69042 0 0 1.01646 .25 -2.492)"/><linearGradient x1="5.212" y1=".065" x2="54.887" y2=".065" id="p" xlink:href="#h" gradientUnits="userSpaceOnUse" gradientTransform="matrix(.49254 0 0 .49377 .89 .144)"/><radialGradient cx="4.993" cy="43.5" r="2.5" fx="4.993" fy="43.5" id="l" xlink:href="#i" gradientUnits="userSpaceOnUse" gradientTransform="matrix(2.00378 0 0 1.4 27.988 -17.4)"/><linearGradient id="i"><stop offset="0" stop-color="#181818"/><stop offset="1" stop-color="#181818" stop-opacity="0"/></linearGradient><radialGradient cx="4.993" cy="43.5" r="2.5" fx="4.993" fy="43.5" id="m" xlink:href="#j" gradientUnits="userSpaceOnUse" gradientTransform="matrix(2.00378 0 0 1.4 -20.012 -104.4)"/><linearGradient id="j"><stop offset="0" stop-color="#181818"/><stop offset="1" stop-color="#181818" stop-opacity="0"/></linearGradient><linearGradient x1="25.058" y1="47.028" x2="25.058" y2="39.999" id="n" xlink:href="#k" gradientUnits="userSpaceOnUse"/><linearGradient id="k"><stop offset="0" stop-color="#181818" stop-opacity="0"/><stop offset=".5" stop-color="#181818"/><stop offset="1" stop-color="#181818" stop-opacity="0"/></linearGradient><linearGradient id="d"><stop offset="0" stop-color="#c4ea71"/><stop offset="1" stop-color="#7c9d35"/></linearGradient><linearGradient id="e"><stop offset="0" stop-color="#96bf3e"/><stop offset="1" stop-color="#4d6b0d"/></linearGradient><linearGradient id="h"><stop offset="0" stop-color="#96bf3e"/><stop offset="1" stop-color="#4d6b0d"/></linearGradient></defs><g opacity=".4"><path fill="url(#l)" d="M38 40h5v7h-5z" transform="matrix(.6842 0 0 .42857 -.42 10.857)"/><path transform="matrix(-.6842 0 0 -.42857 -.42 10.857)" fill="url(#m)" d="M-10-47h5v7h-5z"/><path fill="url(#n)" d="M10 40h28v7H10z" transform="matrix(.6842 0 0 .42857 -.42 10.857)"/></g><path d="M27.49 2.304c-.202-.655-.075-1.17-.187-1.795H6.51l.12 1.98" fill="url(#o)" stroke="url(#p)" stroke-width="1.017" stroke-linejoin="round" stroke-miterlimit="0"/><path d="M7.5 3.5H5.1c-.342 0-.6-.032-.6-.073V1.33c0-.666.336-.83.775-.83H7.5" color="#000" fill="url(#q)" stroke="url(#r)" stroke-linecap="round" stroke-linejoin="round" overflow="visible"/><rect width="21.981" height="26.981" rx=".5" ry=".5" x="5.51" y="2.51" fill="url(#s)" stroke="url(#t)" stroke-width="1.019" stroke-linecap="round" stroke-linejoin="round" stroke-miterlimit="0"/><path d="M7.5 2.5v27H5.1c-.343 0-.6-.286-.6-.66V2.5z" color="#000" fill="url(#u)" stroke="url(#v)" stroke-linecap="round" stroke-linejoin="round" overflow="visible"/><path opacity=".5" fill="none" stroke="url(#w)" stroke-linecap="round" stroke-linejoin="round" d="M5.5 3.5h21v25h-21z"/><path d="M17 20.305l-3.77-3.714L17 12.88l1.257 1.238-2.514 2.476L17 17.83l3.77-3.715-3.284-3.235a.694.694 0 0 0-.972 0L11.2 16.112a.67.67 0 0 0 0 .958l5.314 5.232a.694.694 0 0 0 .972 0L22.8 17.07a.67.67 0 0 0 0-.958l-.772-.76L17 20.306z" opacity=".2"/><path d="M17 19.123l-3.77-3.714L17 11.692l1.257 1.238-2.514 2.477L17 16.647l3.77-3.715-3.284-3.235a.694.694 0 0 0-.972 0L11.2 14.93a.67.67 0 0 0 0 .958l5.314 5.232a.694.694 0 0 0 .972 0l5.313-5.232a.67.67 0 0 0 0-.957l-.774-.76L17 19.126z" fill="#fff"/></svg>
